X:1070
T: Eileen O'Loughlin's
S: B.Breathnach:"Ceol Rince na hEireann" IV/141 (gan ainm)
Z: B.Black
L: 1/8
M: 4/4
R: reel
K: D
dcAB =c2 ed|dcAG FD D2|dcAB =c2 AF|GBAG FD D2|
dcAB =c2 ed|dcAG FD D2|dcAB =c2 AF|GBAG FDDd ||
d2 ef gfec|d2 ed cA A2|d2 ef gfea|agec d2 Ad|
d2 ef gfec|d2 ed cA A2|d2 ef gfea|agec d2 ed ||
